public/images/partner5.svg

<svg width="151" height="42" viewBox="0 0 151 42" fill="none" xmlns="http://www.w3.org/2000/svg">
<path d="M21.5916 0.328125C10.1749 0.328125 0.919922 9.58317 0.919922 20.9998C0.919922 32.4165 10.1749 41.6716 21.5916 41.6716C31.8345 41.6716 40.3373 34.2219 41.9775 24.4451H41.8292C40.2993 30.389 34.9036 34.781 28.4822 34.781C20.8711 34.781 14.7011 28.611 14.7011 20.9998C14.7011 13.3887 20.8711 7.2187 28.4822 7.2187C34.9036 7.2187 40.2993 11.6106 41.8292 17.5546H41.9775C40.3373 7.77782 31.8345 0.328125 21.5916 0.328125Z" fill="#A4BCFD"/>
<path d="M0.919922 20.9998C0.919922 9.58317 10.175 0.328125 21.5916 0.328125C31.8345 0.328125 40.3373 7.77782 41.9775 17.5546H28.048C26.5182 11.6107 21.1225 7.2187 14.7011 7.2187C7.08995 7.2187 0.919922 13.3887 0.919922 20.9998Z" fill="#3538CD"/>
<path d="M0.919922 21.0002C0.919922 32.4168 10.175 41.6719 21.5916 41.6719C31.8345 41.6719 40.3373 34.2222 41.9775 24.4454H28.048C26.5182 30.3893 21.1225 34.7813 14.7011 34.7813C7.08995 34.7813 0.919922 28.6113 0.919922 21.0002Z" fill="#3538CD"/>
<path d="M71.8043 17.7185C71.2157 13.4675 67.9457 11.001 63.704 11.001C58.7056 11.001 54.9404 14.6447 54.9404 20.8297C54.9404 27.0053 58.6589 30.6583 63.704 30.6583C68.254 30.6583 71.2717 27.7153 71.8043 24.0623L68.31 24.0436C67.8709 26.2859 66.0397 27.5472 63.7507 27.5472C60.6489 27.5472 58.4253 25.2208 58.4253 20.8297C58.4253 16.5133 60.6302 14.1121 63.7601 14.1121C66.0864 14.1121 67.9083 15.4295 68.31 17.7185H71.8043Z" fill="white"/>
<path d="M78.9585 30.6864C81.2102 30.6864 82.5555 29.6306 83.1722 28.4254H83.2843V30.3967H86.5356V20.7923C86.5356 16.9991 83.4431 15.8593 80.7057 15.8593C77.6879 15.8593 75.3709 17.2046 74.6235 19.8206L77.7814 20.2691C78.1177 19.2881 79.0707 18.4472 80.7243 18.4472C82.2939 18.4472 83.1535 19.2507 83.1535 20.6615V20.7175C83.1535 21.6892 82.1351 21.7359 79.6032 22.0069C76.819 22.3058 74.1563 23.1373 74.1563 26.37C74.1563 29.1915 76.2211 30.6864 78.9585 30.6864ZM79.8368 28.2012C78.426 28.2012 77.417 27.5565 77.417 26.3139C77.417 25.0152 78.5475 24.4734 80.061 24.2585C80.9486 24.137 82.7237 23.9128 83.1628 23.5578V25.2488C83.1628 26.8464 81.8735 28.2012 79.8368 28.2012Z" fill="white"/>
<path d="M97.1024 16.0461H94.2715V12.6079H90.8894V16.0461H88.8526V18.6621H90.8894V26.6409C90.8707 29.341 92.8327 30.6677 95.3739 30.5929C96.3362 30.5649 96.9996 30.378 97.364 30.2566L96.794 27.6126C96.6072 27.6593 96.2241 27.7434 95.8037 27.7434C94.9535 27.7434 94.2715 27.4444 94.2715 26.0803V18.6621H97.1024V16.0461Z" fill="white"/>
<path d="M104.06 30.6864C106.312 30.6864 107.657 29.6306 108.274 28.4254H108.386V30.3967H111.637V20.7923C111.637 16.9991 108.545 15.8593 105.808 15.8593C102.79 15.8593 100.473 17.2046 99.7254 19.8206L102.883 20.2691C103.22 19.2881 104.173 18.4472 105.826 18.4472C107.396 18.4472 108.255 19.2507 108.255 20.6615V20.7175C108.255 21.6892 107.237 21.7359 104.705 22.0069C101.921 22.3058 99.2582 23.1373 99.2582 26.37C99.2582 29.1915 101.323 30.6864 104.06 30.6864ZM104.939 28.2012C103.528 28.2012 102.519 27.5565 102.519 26.3139C102.519 25.0152 103.649 24.4734 105.163 24.2585C106.05 24.137 107.826 23.9128 108.265 23.5578V25.2488C108.265 26.8464 106.975 28.2012 104.939 28.2012Z" fill="white"/>
<path d="M118.42 11.2626H115.038V30.3967H118.42V11.2626Z" fill="white"/>
<path d="M128.158 30.677C132.362 30.677 135.034 27.7153 135.034 23.2775C135.034 18.8303 132.362 15.8593 128.158 15.8593C123.954 15.8593 121.282 18.8303 121.282 23.2775C121.282 27.7153 123.954 30.677 128.158 30.677ZM128.177 27.9676C125.85 27.9676 124.71 25.8935 124.71 23.2681C124.71 20.6428 125.85 18.5407 128.177 18.5407C130.466 18.5407 131.605 20.6428 131.605 23.2681C131.605 25.8935 130.466 27.9676 128.177 27.9676Z" fill="white"/>
<path d="M144.146 36.0772C148.023 36.0772 150.882 34.302 150.882 30.6303V16.0461H147.547V18.4192H147.36C146.846 17.3821 145.772 15.8593 143.24 15.8593C139.923 15.8593 137.316 18.4566 137.316 23.1747C137.316 27.8555 139.923 30.1912 143.23 30.1912C145.687 30.1912 146.837 28.8738 147.36 27.8181H147.528V30.5369C147.528 32.6484 146.127 33.5172 144.202 33.5172C142.165 33.5172 141.268 32.5549 140.857 31.7141L137.811 32.4522C138.428 34.4609 140.493 36.0772 144.146 36.0772ZM144.174 27.5378C141.941 27.5378 140.764 25.8 140.764 23.156C140.764 20.5494 141.922 18.6341 144.174 18.6341C146.351 18.6341 147.547 20.4373 147.547 23.156C147.547 25.8935 146.332 27.5378 144.174 27.5378Z" fill="white"/>
</svg>

<svg width="151" height="42" fill="none" xmlns="http://www.w3.org/2000/svg"><path d="M21.592.328C10.175.328.92 9.583.92 21c0 11.416 9.255 20.672 20.672 20.672 10.242 0 18.745-7.45 20.386-17.227h-.149c-1.53 5.944-6.925 10.336-13.347 10.336-7.61 0-13.78-6.17-13.78-13.781 0-7.611 6.17-13.781 13.78-13.781 6.422 0 11.817 4.392 13.347 10.336h.148C40.337 7.778 31.835.328 21.592.328z" fill="#A4BCFD"/><path d="M.92 21C.92 9.583 10.175.328 21.592.328c10.242 0 18.745 7.45 20.386 17.227h-13.93c-1.53-5.944-6.925-10.336-13.347-10.336C7.09 7.219.92 13.389.92 20.999zM.92 21c0 11.417 9.255 20.672 20.672 20.672 10.242 0 18.745-7.45 20.386-17.227h-13.93c-1.53 5.944-6.925 10.336-13.347 10.336C7.09 34.781.92 28.611.92 21.001z" fill="#3538CD"/><path d="M71.804 17.718c-.588-4.25-3.858-6.717-8.1-6.717-4.998 0-8.764 3.644-8.764 9.829 0 6.175 3.719 9.828 8.764 9.828 4.55 0 7.568-2.943 8.1-6.596l-3.494-.018c-.44 2.242-2.27 3.503-4.56 3.503-3.101 0-5.325-2.326-5.325-6.717 0-4.317 2.205-6.718 5.335-6.718 2.326 0 4.148 1.318 4.55 3.606h3.494zM78.959 30.686c2.251 0 3.596-1.055 4.213-2.26h.112v1.97h3.252v-9.604c0-3.793-3.093-4.933-5.83-4.933-3.018 0-5.335 1.346-6.082 3.962l3.157.448c.337-.98 1.29-1.822 2.943-1.822 1.57 0 2.43.804 2.43 2.215v.056c0 .971-1.019 1.018-3.55 1.289-2.785.299-5.448 1.13-5.448 4.363 0 2.822 2.065 4.316 4.802 4.316zm.878-2.485c-1.411 0-2.42-.645-2.42-1.887 0-1.299 1.13-1.84 2.644-2.055.888-.122 2.663-.346 3.102-.701v1.69c0 1.598-1.29 2.953-3.326 2.953zM97.102 16.046h-2.83v-3.438h-3.383v3.438h-2.036v2.616h2.036v7.979c-.018 2.7 1.944 4.027 4.485 3.952a6.8 6.8 0 0 0 1.99-.336l-.57-2.644c-.187.046-.57.13-.99.13-.85 0-1.532-.299-1.532-1.663v-7.418h2.83v-2.616zM104.06 30.686c2.252 0 3.597-1.055 4.214-2.26h.112v1.97h3.251v-9.604c0-3.793-3.092-4.933-5.829-4.933-3.018 0-5.335 1.346-6.083 3.962l3.158.448c.337-.98 1.29-1.822 2.943-1.822 1.57 0 2.429.804 2.429 2.215v.056c0 .971-1.018 1.018-3.55 1.289-2.784.299-5.447 1.13-5.447 4.363 0 2.822 2.065 4.316 4.802 4.316zm.879-2.485c-1.411 0-2.42-.645-2.42-1.887 0-1.299 1.13-1.84 2.644-2.055.887-.122 2.663-.346 3.102-.701v1.69c0 1.598-1.29 2.953-3.326 2.953zM118.42 11.263h-3.382v19.134h3.382V11.263zM128.158 30.677c4.204 0 6.876-2.962 6.876-7.4 0-4.447-2.672-7.418-6.876-7.418-4.204 0-6.876 2.971-6.876 7.418 0 4.438 2.672 7.4 6.876 7.4zm.019-2.71c-2.327 0-3.467-2.073-3.467-4.699 0-2.625 1.14-4.727 3.467-4.727 2.289 0 3.428 2.102 3.428 4.727 0 2.625-1.139 4.7-3.428 4.7zM144.146 36.077c3.877 0 6.736-1.775 6.736-5.447V16.046h-3.335v2.373h-.187c-.514-1.037-1.588-2.56-4.12-2.56-3.317 0-5.924 2.598-5.924 7.316 0 4.68 2.607 7.016 5.914 7.016 2.457 0 3.607-1.317 4.13-2.373h.168v2.719c0 2.111-1.401 2.98-3.326 2.98-2.037 0-2.934-.962-3.345-1.803l-3.046.738c.617 2.009 2.682 3.625 6.335 3.625zm.028-8.54c-2.233 0-3.41-1.737-3.41-4.381 0-2.607 1.158-4.522 3.41-4.522 2.177 0 3.373 1.803 3.373 4.522 0 2.738-1.215 4.382-3.373 4.382z" fill="#fff"/></svg>
